icon-themes/breeze_svg/cmd/lc_bringtofront.svg

<svg viewBox="0 0 24 24" xmlns="http://www.w3.org/2000/svg"><path d="m4 4v1h16v-1zm12.5 2-.21875.2148438-3.28125 3.2304687.71875.7089845 2.28125-2.2460939v8.1523439 3.939453h1v-3.939453-8.1523439l2.28125 2.2460939.71875-.7089845-3.28125-3.2304687zm-12.5 3v1h8v-1zm0 5v1h8v-1zm0 5v1h8v-1z" fill="#4d4d4d"/></svg>

<svg xmlns="http://www.w3.org/2000/svg" viewBox="0 0 24 24">
 <path 
     style="fill:#4d4d4d" 
     d="M 4 4 L 4 5 L 20 5 L 20 4 L 4 4 z M 16.5 6 L 16.28125 6.2148438 L 13 9.4453125 L 13.71875 10.154297 L 16 7.9082031 L 16 16.060547 L 16 20 L 17 20 L 17 16.060547 L 17 7.9082031 L 19.28125 10.154297 L 20 9.4453125 L 16.71875 6.2148438 L 16.5 6 z M 4 9 L 4 10 L 12 10 L 12 9 L 4 9 z M 4 14 L 4 15 L 12 15 L 12 14 L 4 14 z M 4 19 L 4 20 L 12 20 L 12 19 L 4 19 z "
     />
 </svg>
